X: 22513
T: Lady Elizabeth Lindsay's
R: strathspey
M: 4/4
K: Amajor
f|e<Ac>B A<FFz|E>DC>D E>A,A,/z f|e<Ac>B A<FF>A|c<ec>A ~B2 (3(eaf)|
e<Ac>B A<FFz|(E<D)C>D E>A,A,/z f|e<Ac>B A<FF>A|c<ec>A ~B2 (B<c)||
A>Bc>d e>A ~c2|(e<A)c>e e<Ac<a|A>Bc>d e>A (3(cBA)|e<fe<c ~B2 (B<c)|
A>Bc>d e>A ~c2|(e<A){d}c>e e<AA<a|f<fe>c d>Bc>A|c<fe>c B2 (3(eaf)||

